src/ipa/rpi/vc4/data/imx462.json
{
    "version": 2.0,
    "target": "bcm2835",
    "vendor": "Innomaker",
    "algorithms": [
        {
            "rpi.black_level":
            {
                "black_level": 3840
            }
        },
        {
            "rpi.dpc": { }
        },
        {
            "rpi.lux":
            {
                "reference_shutter_speed": 5437,
                "reference_gain": 1.0,
                "reference_aperture": 1.0,
                "reference_lux": 972,
                "reference_Y": 12728
            }
        },
        {
            "rpi.noise":
            {
                "reference_constant": 0,
                "reference_slope": 3.849
            }
        },
        {
            "rpi.geq":
            {
                "offset": 194,
                "slope": 0.01041
            }
        },
        {
            "rpi.sdn": { }
        },
        {
            "rpi.awb":
            {
                "priors": [
                    {
                        "lux": 0,
                        "prior":
                        [
                            2000, 1.0,
                            3000, 0.0,
                            13000, 0.0
                        ]
                    },
                    {
                        "lux": 800,
                        "prior":
                        [
                            2000, 0.0,
                            6000, 2.0,
                            13000, 2.0
                        ]
                    },
                    {
                        "lux": 1500,
                        "prior":
                        [
                            2000, 0.0,
                            4000, 1.0,
                            6000, 6.0,
                            6500, 7.0,
                            7000, 1.0,
                            13000, 1.0
                        ]
                    }
                ],
                "modes":
                {
                    "auto":
                    {
                        "lo": 2800,
                        "hi": 6700
                    },
                    "incandescent":
                    {
                        "lo": 2800,
                        "hi": 3000
                    },
                    "tungsten":
                    {
                        "lo": 3000,
                        "hi": 3500
                    },
                    "fluorescent":
                    {
                        "lo": 4000,
                        "hi": 4700
                    },
                    "indoor":
                    {
                        "lo": 3000,
                        "hi": 5000
                    },
                    "daylight":
                    {
                        "lo": 5500,
                        "hi": 6500
                    }
                },
                "bayes": 1,
                "ct_curve":
                [
                    2820.0, 0.8648, 0.3773,
                    2865.0, 0.8518, 0.3879,
                    2895.0, 0.8512, 0.3884,
                    2906.0, 0.8483, 0.3907,
                    2918.0, 0.8327, 0.4035,
                    3587.0, 0.7422, 0.4765,
                    3615.0, 0.7419, 0.4767,
                    3620.0, 0.7381, 0.4798,
                    4330.0, 0.6429, 0.5549,
                    4490.0, 0.6299, 0.5651,
                    4535.0, 0.6235, 0.5701,
                    4580.0, 0.6183, 0.5741,
                    5640.0, 0.5627, 0.6171,
                    5675.0, 0.5612, 0.6182,
                    5750.0, 0.5591, 0.6198,
                    6737.0, 0.4923, 0.6707
                ],
                "sensitivity_r": 1.0,
                "sensitivity_b": 1.0,
                "transverse_pos": 0.04605,
                "transverse_neg": 0.02754
            }
        },
        {
            "rpi.agc":
            {
                "metering_modes":
                {
                    "centre-weighted":
                    {
                        "weights":
                        [
                            3, 3, 3, 2, 2, 2, 2, 1, 1, 1, 1, 0, 0, 0, 0
                        ]
                    },
                    "spot":
                    {
                        "weights":
                        [
                            2, 1, 1, 0, 0, 0, 0, 0, 0, 0, 0, 0, 0, 0, 0
                        ]
                    },
                    "matrix":
                    {
                        "weights":
                        [
                            1, 1, 1, 1, 1, 1, 1, 1, 1, 1, 1, 1, 1, 1, 1
                        ]
                    }
                },
                "exposure_modes":
                {
                    "normal":
                    {
                        "shutter": [ 100, 10000, 30000, 60000, 66666 ],
                        "gain": [ 1.0, 2.0, 4.0, 6.0, 8.0 ]
                    },
                    "short":
                    {
                        "shutter": [ 100, 5000, 10000, 20000, 66666 ],
                        "gain": [ 1.0, 2.0, 4.0, 6.0, 8.0 ]
                    },
                    "long":
                    {
                        "shutter": [ 100, 10000, 30000, 60000, 120000 ],
                        "gain": [ 1.0, 2.0, 4.0, 6.0, 8.0 ]
                    }
                },
                "constraint_modes":
                {
                    "normal": [
                        {
                            "bound": "LOWER",
                            "q_lo": 0.98,
                            "q_hi": 1.0,
                            "y_target":
                            [
                                0, 0.5,
                                1000, 0.5
                            ]
                        }
                    ],
                    "highlight": [
                        {
                            "bound": "LOWER",
                            "q_lo": 0.98,
                            "q_hi": 1.0,
                            "y_target":
                            [
                                0, 0.5,
                                1000, 0.5
                            ]
                        },
                        {
                            "bound": "UPPER",
                            "q_lo": 0.98,
                            "q_hi": 1.0,
                            "y_target":
                            [
                                0, 0.8,
                                1000, 0.8
                            ]
                        }
                    ]
                },
                "y_target":
                [
                    0, 0.16,
                    1000, 0.165,
                    10000, 0.17
                ]
            }
        },
        {
            "rpi.alsc":
            {
                "omega": 1.3,
                "n_iter": 100,
                "luminance_strength": 0.8,
                "calibrations_Cr": [
                    {
                        "ct": 2900,
                        "table":
                        [
                            1.051, 1.043, 1.033, 1.025, 1.019, 1.015, 1.011, 1.011, 1.011, 1.011, 1.013, 1.017, 1.021, 1.028, 1.035, 1.036,
                            1.047, 1.038, 1.028, 1.021, 1.016, 1.013, 1.009, 1.008, 1.007, 1.008, 1.011, 1.013, 1.018, 1.025, 1.032, 1.036,
                            1.044, 1.035, 1.024, 1.017, 1.013, 1.009, 1.006, 1.004, 1.004, 1.005, 1.007, 1.011, 1.015, 1.021, 1.028, 1.032,
                            1.041, 1.031, 1.022, 1.015, 1.009, 1.006, 1.004, 1.003, 1.002, 1.003, 1.005, 1.007, 1.011, 1.017, 1.026, 1.029,
                            1.041, 1.029, 1.021, 1.014, 1.008, 1.005, 1.003, 1.001, 1.001, 1.002, 1.003, 1.006, 1.011, 1.016, 1.024, 1.027,
                            1.039, 1.029, 1.019, 1.013, 1.007, 1.004, 1.001, 1.001, 1.001, 1.001, 1.002, 1.005, 1.009, 1.015, 1.023, 1.026,
                            1.039, 1.028, 1.019, 1.012, 1.007, 1.004, 1.001, 1.001, 1.001, 1.001, 1.002, 1.005, 1.009, 1.015, 1.023, 1.026,
                            1.039, 1.029, 1.019, 1.013, 1.007, 1.004, 1.002, 1.001, 1.001, 1.001, 1.003, 1.006, 1.009, 1.015, 1.023, 1.027,
                            1.041, 1.031, 1.021, 1.014, 1.009, 1.005, 1.003, 1.002, 1.001, 1.002, 1.004, 1.007, 1.011, 1.016, 1.024, 1.028,
                            1.043, 1.033, 1.023, 1.016, 1.011, 1.007, 1.005, 1.003, 1.003, 1.004, 1.007, 1.009, 1.013, 1.019, 1.027, 1.029,
                            1.045, 1.035, 1.026, 1.018, 1.013, 1.009, 1.006, 1.004, 1.004, 1.006, 1.008, 1.011, 1.016, 1.022, 1.028, 1.032,
                            1.047, 1.039, 1.029, 1.021, 1.014, 1.012, 1.006, 1.004, 1.005, 1.006, 1.011, 1.014, 1.017, 1.025, 1.029, 1.037
                        ]
                    },
                    {
                        "ct": 4250,
                        "table":
                        [
                            1.058, 1.049, 1.037, 1.028, 1.022, 1.017, 1.013, 1.012, 1.012, 1.012, 1.015, 1.019, 1.025, 1.031, 1.042, 1.045,
                            1.054, 1.043, 1.032, 1.024, 1.018, 1.014, 1.011, 1.009, 1.009, 1.009, 1.012, 1.016, 1.021, 1.027, 1.037, 1.043,
                            1.049, 1.038, 1.028, 1.021, 1.014, 1.011, 1.007, 1.005, 1.005, 1.006, 1.009, 1.012, 1.017, 1.023, 1.033, 1.038,
                            1.046, 1.035, 1.024, 1.017, 1.011, 1.007, 1.004, 1.003, 1.003, 1.004, 1.006, 1.009, 1.014, 1.021, 1.029, 1.033,
                            1.044, 1.032, 1.022, 1.015, 1.009, 1.005, 1.003, 1.002, 1.002, 1.002, 1.004, 1.007, 1.012, 1.018, 1.027, 1.032,
                            1.043, 1.031, 1.021, 1.014, 1.008, 1.004, 1.002, 1.001, 1.001, 1.002, 1.003, 1.007, 1.011, 1.017, 1.026, 1.032,
                            1.043, 1.031, 1.021, 1.013, 1.007, 1.004, 1.001, 1.001, 1.001, 1.001, 1.002, 1.006, 1.011, 1.017, 1.026, 1.032,
                            1.043, 1.031, 1.021, 1.013, 1.007, 1.004, 1.002, 1.001, 1.001, 1.001, 1.003, 1.007, 1.012, 1.017, 1.026, 1.032,
                            1.044, 1.032, 1.021, 1.014, 1.009, 1.005, 1.003, 1.002, 1.002, 1.003, 1.005, 1.008, 1.013, 1.019, 1.027, 1.032,
                            1.046, 1.035, 1.024, 1.017, 1.011, 1.007, 1.005, 1.003, 1.004, 1.005, 1.007, 1.011, 1.015, 1.021, 1.031, 1.034,
                            1.048, 1.037, 1.027, 1.019, 1.012, 1.009, 1.007, 1.005, 1.005, 1.006, 1.007, 1.011, 1.016, 1.023, 1.032, 1.036,
                            1.048, 1.039, 1.029, 1.019, 1.012, 1.009, 1.007, 1.006, 1.006, 1.006, 1.007, 1.011, 1.018, 1.025, 1.034, 1.041
                        ]
                    },
                    {
                        "ct": 6000,
                        "table":
                        [
                            1.056, 1.047, 1.036, 1.028, 1.022, 1.017, 1.014, 1.013, 1.013, 1.013, 1.015, 1.019, 1.026, 1.034, 1.042, 1.046,
                            1.051, 1.043, 1.031, 1.023, 1.018, 1.014, 1.011, 1.009, 1.009, 1.009, 1.012, 1.016, 1.021, 1.028, 1.038, 1.042,
                            1.049, 1.037, 1.027, 1.019, 1.014, 1.011, 1.007, 1.006, 1.006, 1.007, 1.009, 1.012, 1.017, 1.024, 1.033, 1.038,
                            1.046, 1.034, 1.023, 1.016, 1.011, 1.007, 1.005, 1.004, 1.004, 1.005, 1.007, 1.009, 1.015, 1.021, 1.032, 1.036,
                            1.044, 1.032, 1.021, 1.014, 1.009, 1.005, 1.003, 1.002, 1.002, 1.003, 1.005, 1.008, 1.013, 1.019, 1.029, 1.034,
                            1.043, 1.031, 1.021, 1.013, 1.007, 1.004, 1.002, 1.001, 1.001, 1.002, 1.004, 1.007, 1.012, 1.018, 1.028, 1.033,
                            1.043, 1.029, 1.019, 1.013, 1.007, 1.003, 1.002, 1.001, 1.001, 1.002, 1.003, 1.007, 1.011, 1.017, 1.027, 1.033,
                            1.043, 1.031, 1.019, 1.013, 1.008, 1.004, 1.002, 1.001, 1.001, 1.002, 1.004, 1.007, 1.012, 1.018, 1.027, 1.033,
                            1.043, 1.032, 1.021, 1.013, 1.008, 1.005, 1.003, 1.002, 1.002, 1.003, 1.005, 1.008, 1.013, 1.019, 1.028, 1.033,
                            1.044, 1.035, 1.024, 1.016, 1.011, 1.007, 1.004, 1.003, 1.003, 1.005, 1.007, 1.009, 1.015, 1.022, 1.032, 1.035,
                            1.045, 1.036, 1.024, 1.016, 1.012, 1.008, 1.005, 1.004, 1.004, 1.005, 1.008, 1.011, 1.018, 1.025, 1.034, 1.036,
                            1.045, 1.037, 1.026, 1.015, 1.013, 1.009, 1.007, 1.005, 1.005, 1.006, 1.008, 1.011, 1.022, 1.028, 1.034, 1.039
                        ]
                    }
                ],
                "calibrations_Cb": [
                    {
                        "ct": 2900,
                        "table":
                        [
                            1.008, 1.007, 1.006, 1.005, 1.003, 1.003, 1.002, 1.002, 1.002, 1.002, 1.003, 1.005, 1.007, 1.009, 1.013, 1.014,
                            1.007, 1.006, 1.005, 1.004, 1.003, 1.002, 1.002, 1.002, 1.002, 1.002, 1.003, 1.004, 1.006, 1.008, 1.011, 1.013,
                            1.007, 1.005, 1.004, 1.003, 1.002, 1.002, 1.002, 1.002, 1.002, 1.002, 1.003, 1.004, 1.005, 1.007, 1.011, 1.013,
                            1.006, 1.004, 1.003, 1.002, 1.002, 1.002, 1.002, 1.002, 1.002, 1.002, 1.003, 1.004, 1.005, 1.007, 1.009, 1.011,
                            1.004, 1.003, 1.002, 1.002, 1.002, 1.002, 1.001, 1.001, 1.001, 1.002, 1.003, 1.003, 1.005, 1.007, 1.009, 1.011,
                            1.004, 1.003, 1.002, 1.002, 1.002, 1.001, 1.001, 1.001, 1.001, 1.002, 1.002, 1.003, 1.004, 1.007, 1.009, 1.011,
                            1.004, 1.003, 1.002, 1.002, 1.002, 1.001, 1.001, 1.001, 1.001, 1.001, 1.002, 1.003, 1.005, 1.006, 1.009, 1.011,
                            1.004, 1.003, 1.003, 1.002, 1.002, 1.002, 1.002, 1.001, 1.002, 1.002, 1.003, 1.004, 1.005, 1.007, 1.009, 1.011,
                            1.005, 1.004, 1.003, 1.003, 1.002, 1.002, 1.002, 1.002, 1.003, 1.004, 1.004, 1.005, 1.006, 1.007, 1.009, 1.012,
                            1.004, 1.003, 1.002, 1.002, 1.002, 1.002, 1.002, 1.003, 1.003, 1.004, 1.005, 1.005, 1.007, 1.008, 1.012, 1.014,
                            1.004, 1.003, 1.002, 1.001, 1.002, 1.002, 1.002, 1.002, 1.003, 1.004, 1.005, 1.005, 1.007, 1.009, 1.013, 1.016,
                            1.003, 1.002, 1.001, 1.001, 1.001, 1.001, 1.001, 1.002, 1.003, 1.004, 1.005, 1.004, 1.005, 1.009, 1.015, 1.017
                        ]
                    },
                    {
                        "ct": 4250,
                        "table":
                        [
                            1.001, 1.004, 1.005, 1.007, 1.008, 1.009, 1.009, 1.009, 1.009, 1.009, 1.009, 1.009, 1.008, 1.007, 1.007, 1.007,
                            1.003, 1.005, 1.006, 1.007, 1.009, 1.011, 1.012, 1.012, 1.011, 1.011, 1.009, 1.009, 1.008, 1.007, 1.007, 1.007,
                            1.003, 1.005, 1.006, 1.008, 1.009, 1.012, 1.013, 1.014, 1.013, 1.012, 1.011, 1.009, 1.009, 1.008, 1.008, 1.007,
                            1.004, 1.005, 1.006, 1.008, 1.011, 1.013, 1.014, 1.014, 1.014, 1.014, 1.013, 1.011, 1.009, 1.009, 1.008, 1.008,
                            1.004, 1.005, 1.006, 1.009, 1.012, 1.014, 1.014, 1.015, 1.014, 1.014, 1.014, 1.012, 1.011, 1.009, 1.009, 1.009,
                            1.004, 1.004, 1.007, 1.009, 1.013, 1.014, 1.015, 1.014, 1.014, 1.014, 1.014, 1.012, 1.011, 1.009, 1.009, 1.009,
                            1.004, 1.005, 1.008, 1.009, 1.013, 1.014, 1.015, 1.015, 1.015, 1.015, 1.014, 1.012, 1.009, 1.009, 1.009, 1.009,
                            1.004, 1.005, 1.007, 1.011, 1.013, 1.015, 1.015, 1.015, 1.015, 1.015, 1.014, 1.012, 1.011, 1.009, 1.009, 1.009,
                            1.004, 1.005, 1.007, 1.009, 1.013, 1.014, 1.015, 1.015, 1.016, 1.015, 1.015, 1.012, 1.011, 1.009, 1.009, 1.009,
                            1.004, 1.005, 1.006, 1.009, 1.011, 1.013, 1.015, 1.015, 1.015, 1.015, 1.013, 1.012, 1.011, 1.011, 1.011, 1.009,
                            1.003, 1.004, 1.006, 1.007, 1.009, 1.012, 1.013, 1.014, 1.015, 1.014, 1.012, 1.011, 1.011, 1.011, 1.011, 1.011,
                            1.003, 1.002, 1.005, 1.006, 1.008, 1.011, 1.012, 1.013, 1.013, 1.012, 1.011, 1.011, 1.011, 1.012, 1.012, 1.012
                        ]
                    },
                    {
                        "ct": 6000,
                        "table":
                        [
                            1.001, 1.002, 1.004, 1.006, 1.008, 1.009, 1.009, 1.009, 1.009, 1.009, 1.008, 1.007, 1.006, 1.005, 1.004, 1.003,
                            1.002, 1.003, 1.005, 1.007, 1.009, 1.011, 1.012, 1.012, 1.011, 1.011, 1.009, 1.007, 1.007, 1.006, 1.005, 1.004,
                            1.003, 1.004, 1.006, 1.008, 1.011, 1.013, 1.014, 1.014, 1.014, 1.013, 1.011, 1.009, 1.008, 1.006, 1.006, 1.006,
                            1.003, 1.004, 1.007, 1.009, 1.013, 1.014, 1.015, 1.015, 1.015, 1.014, 1.013, 1.011, 1.009, 1.007, 1.007, 1.006,
                            1.003, 1.004, 1.007, 1.011, 1.014, 1.015, 1.015, 1.015, 1.015, 1.015, 1.014, 1.012, 1.011, 1.008, 1.007, 1.006,
                            1.003, 1.005, 1.008, 1.011, 1.014, 1.015, 1.015, 1.016, 1.015, 1.015, 1.014, 1.012, 1.011, 1.008, 1.007, 1.007,
                            1.004, 1.006, 1.009, 1.012, 1.015, 1.015, 1.016, 1.016, 1.016, 1.016, 1.015, 1.013, 1.011, 1.008, 1.008, 1.007,
                            1.004, 1.006, 1.009, 1.012, 1.015, 1.016, 1.016, 1.016, 1.016, 1.016, 1.015, 1.013, 1.011, 1.009, 1.008, 1.007,
                            1.003, 1.006, 1.008, 1.011, 1.014, 1.016, 1.016, 1.017, 1.017, 1.016, 1.015, 1.013, 1.011, 1.009, 1.008, 1.008,
                            1.002, 1.005, 1.007, 1.009, 1.013, 1.015, 1.016, 1.017, 1.017, 1.016, 1.014, 1.013, 1.011, 1.009, 1.009, 1.009,
                            1.003, 1.003, 1.005, 1.008, 1.011, 1.013, 1.015, 1.016, 1.016, 1.015, 1.013, 1.012, 1.009, 1.009, 1.011, 1.009,
                            1.003, 1.002, 1.002, 1.006, 1.009, 1.011, 1.013, 1.014, 1.014, 1.014, 1.012, 1.011, 1.009, 1.011, 1.011, 1.011
                        ]
                    }
                ],
                "luminance_lut":
                [
                    2.014, 1.787, 1.516, 1.342, 1.226, 1.143, 1.095, 1.095, 1.095, 1.119, 1.197, 1.295, 1.441, 1.661, 2.015, 2.098,
                    1.853, 1.631, 1.399, 1.246, 1.153, 1.086, 1.047, 1.038, 1.038, 1.065, 1.133, 1.206, 1.333, 1.527, 1.821, 2.015,
                    1.748, 1.525, 1.317, 1.177, 1.086, 1.046, 1.019, 1.013, 1.013, 1.031, 1.065, 1.141, 1.259, 1.431, 1.695, 1.827,
                    1.683, 1.452, 1.261, 1.131, 1.049, 1.019, 1.012, 1.007, 1.007, 1.011, 1.031, 1.097, 1.207, 1.369, 1.611, 1.761,
                    1.651, 1.407, 1.225, 1.101, 1.031, 1.014, 1.007, 1.003, 1.003, 1.006, 1.017, 1.071, 1.174, 1.329, 1.558, 1.731,
                    1.649, 1.386, 1.209, 1.088, 1.025, 1.011, 1.003, 1.001, 1.001, 1.005, 1.013, 1.057, 1.158, 1.312, 1.536, 1.728,
                    1.649, 1.386, 1.209, 1.088, 1.025, 1.011, 1.004, 1.002, 1.002, 1.005, 1.013, 1.057, 1.158, 1.312, 1.536, 1.728,
                    1.649, 1.403, 1.224, 1.101, 1.031, 1.014, 1.008, 1.004, 1.005, 1.009, 1.017, 1.069, 1.173, 1.332, 1.562, 1.729,
                    1.679, 1.448, 1.259, 1.131, 1.049, 1.019, 1.013, 1.009, 1.009, 1.015, 1.032, 1.096, 1.207, 1.373, 1.615, 1.758,
                    1.744, 1.522, 1.315, 1.177, 1.088, 1.047, 1.019, 1.015, 1.016, 1.031, 1.066, 1.141, 1.261, 1.437, 1.696, 1.823,
                    1.847, 1.627, 1.397, 1.245, 1.145, 1.082, 1.048, 1.039, 1.039, 1.065, 1.118, 1.205, 1.336, 1.529, 1.817, 1.926,
                    2.001, 1.696, 1.454, 1.291, 1.183, 1.113, 1.076, 1.061, 1.065, 1.097, 1.154, 1.249, 1.381, 1.588, 1.894, 2.089
                ],
                "sigma": 0.0007,
                "sigma_Cb": 0.00148
            }
        },
        {
            "rpi.contrast":
            {
                "ce_enable": 1,
                "gamma_curve":
                [
                    0, 0,
                    1024, 5040,
                    2048, 9338,
                    3072, 12356,
                    4096, 15312,
                    5120, 18051,
                    6144, 20790,
                    7168, 23193,
                    8192, 25744,
                    9216, 27942,
                    10240, 30035,
                    11264, 32005,
                    12288, 33975,
                    13312, 35815,
                    14336, 37600,
                    15360, 39168,
                    16384, 40642,
                    18432, 43379,
                    20480, 45749,
                    22528, 47753,
                    24576, 49621,
                    26624, 51253,
                    28672, 52698,
                    30720, 53796,
                    32768, 54876,
                    36864, 57012,
                    40960, 58656,
                    45056, 59954,
                    49152, 61183,
                    53248, 62355,
                    57344, 63419,
                    61440, 64476,
                    65535, 65535
                ]
            }
        },
        {
            "rpi.ccm":
            {
                "ccms": [
                    {
                        "ct": 2820,
                        "ccm":
                        [
                            1.94275, -0.47725, -0.46549,
                            -0.80691, 2.51614, -0.70923,
                            -0.09116, -1.45539, 2.54656
                        ]
                    },
                    {
                        "ct": 2865,
                        "ccm":
                        [
                            1.94537, -0.55088, -0.39448,
                            -0.78364, 2.40893, -0.62529,
                            -0.11215, -1.27981, 2.39196
                        ]
                    },
                    {
                        "ct": 2895,
                        "ccm":
                        [
                            1.94654, -0.54458, -0.40197,
                            -0.79315, 2.40489, -0.61174,
                            -0.10536, -1.29819, 2.40354
                        ]
                    },
                    {
                        "ct": 2906,
                        "ccm":
                        [
                            1.97308, -0.59029, -0.38278,
                            -0.76004, 2.32223, -0.56219,
                            -0.09668, -1.35448, 2.45116
                        ]
                    },
                    {
                        "ct": 2918,
                        "ccm":
                        [
                            2.06262, -0.62917, -0.43344,
                            -0.60088, 2.06833, -0.46745,
                            -0.02829, -1.76479, 2.79309
                        ]
                    },
                    {
                        "ct": 3587,
                        "ccm":
                        [
                            1.94164, -0.63474, -0.30689,
                            -0.66171, 2.20498, -0.54328,
                            -0.07964, -1.06716, 2.14679
                        ]
                    },
                    {
                        "ct": 3615,
                        "ccm":
                        [
                            1.96985, -0.66795, -0.30191,
                            -0.66083, 2.15661, -0.49577,
                            -0.07616, -1.03297, 2.10913
                        ]
                    },
                    {
                        "ct": 3620,
                        "ccm":
                        [
                            1.96232, -0.65151, -0.31081,
                            -0.66289, 2.19357, -0.53068,
                            -0.07759, -0.99765, 2.07524
                        ]
                    },
                    {
                        "ct": 3631,
