src/ipa/rpi/vc4/data/vd56g3.json
{
    "version": 2.0,
    "target": "bcm2835",
    "algorithms": [
        {
            "rpi.black_level":
            {
                "black_level": 4096
            }
        },
        {
            "rpi.dpc": { }
        },
        {
            "rpi.lux":
            {
                "reference_shutter_speed": 14818,
                "reference_gain": 1.0,
                "reference_aperture": 1.0,
                "reference_lux": 900,
                "reference_Y": 23535
            }
        },
        {
            "rpi.noise":
            {
                "reference_constant": 0,
                "reference_slope": 3.7
            }
        },
        {
            "rpi.geq":
            {
                "offset": 463,
                "slope": 0.02729
            }
        },
        {
            "rpi.sdn": { }
        },
        {
            "rpi.awb":
            {
                "priors": [
                    {
                        "lux": 0,
                        "prior":
                        [
                            2000, 1.0,
                            3000, 0.0,
                            13000, 0.0
                        ]
                    },
                    {
                        "lux": 800,
                        "prior":
                        [
                            2000, 0.0,
                            6000, 2.0,
                            13000, 2.0
                        ]
                    },
                    {
                        "lux": 1500,
                        "prior":
                        [
                            2000, 0.0,
                            4000, 1.0,
                            6000, 6.0,
                            6500, 7.0,
                            7000, 1.0,
                            13000, 1.0
                        ]
                    }
                ],
                "modes":
                {
                    "auto":
                    {
                        "lo": 2500,
                        "hi": 8000
                    },
                    "incandescent":
                    {
                        "lo": 2500,
                        "hi": 3000
                    },
                    "tungsten":
                    {
                        "lo": 3000,
                        "hi": 3500
                    },
                    "fluorescent":
                    {
                        "lo": 4000,
                        "hi": 4700
                    },
                    "indoor":
                    {
                        "lo": 3000,
                        "hi": 5000
                    },
                    "daylight":
                    {
                        "lo": 5500,
                        "hi": 6500
                    },
                    "cloudy":
                    {
                        "lo": 7000,
                        "hi": 8600
                    }
                },
                "bayes": 1,
                "ct_curve":
                [
                    2300.0, 1.4816, 0.3153,
                    2856.0, 1.1782, 0.3578,
                    4000.0, 0.9011, 0.4631,
                    6500.0, 0.6454, 0.6812
                ],
                "sensitivity_r": 1.0,
                "sensitivity_b": 1.0,
                "transverse_pos": 0.01862,
                "transverse_neg": 0.03021
            }
        },
        {
            "rpi.agc":
            {
                "metering_modes":
                {
                    "centre-weighted":
                    {
                        "weights":
                        [
                            3, 3, 3, 2, 2, 2, 2, 1, 1, 1, 1, 0, 0, 0, 0
                        ]
                    },
                    "spot":
                    {
                        "weights":
                        [
                            2, 1, 1, 0, 0, 0, 0, 0, 0, 0, 0, 0, 0, 0, 0
                        ]
                    },
                    "matrix":
                    {
                        "weights":
                        [
                            1, 1, 1, 1, 1, 1, 1, 1, 1, 1, 1, 1, 1, 1, 1
                        ]
                    }
                },
                "exposure_modes":
                {
                    "normal":
                    {
                        "shutter": [ 100, 10000, 30000, 60000, 66666 ],
                        "gain": [ 1.0, 2.0, 4.0, 6.0, 8.0 ]
                    },
                    "short":
                    {
                        "shutter": [ 100, 5000, 10000, 20000, 66666 ],
                        "gain": [ 1.0, 2.0, 4.0, 6.0, 8.0 ]
                    },
                    "long":
                    {
                        "shutter": [ 100, 10000, 30000, 60000, 120000 ],
                        "gain": [ 1.0, 2.0, 4.0, 6.0, 8.0 ]
                    }
                },
                "constraint_modes":
                {
                    "normal": [
                        {
                            "bound": "LOWER",
                            "q_lo": 0.98,
                            "q_hi": 1.0,
                            "y_target":
                            [
                                0, 0.5,
                                1000, 0.5
                            ]
                        }
                    ],
                    "highlight": [
                        {
                            "bound": "LOWER",
                            "q_lo": 0.98,
                            "q_hi": 1.0,
                            "y_target":
                            [
                                0, 0.5,
                                1000, 0.5
                            ]
                        },
                        {
                            "bound": "UPPER",
                            "q_lo": 0.98,
                            "q_hi": 1.0,
                            "y_target":
                            [
                                0, 0.8,
                                1000, 0.8
                            ]
                        }
                    ]
                },
                "y_target":
                [
                    0, 0.16,
                    1000, 0.165,
                    10000, 0.17
                ]
            }
        },
        {
            "rpi.alsc":
            {
                "omega": 1.3,
                "n_iter": 100,
                "luminance_strength": 0.8,
                "calibrations_Cr": [
                    {
                        "ct": 2856,
                        "table":
                        [
                            1.136, 1.126, 1.092, 1.082, 1.071, 1.065, 1.064, 1.064, 1.064, 1.069, 1.081, 1.105, 1.136, 1.168, 1.185, 1.217,
                            1.126, 1.094, 1.069, 1.052, 1.039, 1.031, 1.029, 1.029, 1.036, 1.045, 1.059, 1.081, 1.105, 1.137, 1.168, 1.185,
                            1.091, 1.069, 1.048, 1.029, 1.016, 1.009, 1.009, 1.011, 1.016, 1.023, 1.039, 1.059, 1.081, 1.105, 1.136, 1.151,
                            1.071, 1.048, 1.029, 1.016, 1.009, 1.005, 1.001, 1.001, 1.008, 1.016, 1.023, 1.039, 1.061, 1.087, 1.119, 1.136,
                            1.071, 1.041, 1.026, 1.015, 1.006, 1.001, 1.001, 1.001, 1.004, 1.011, 1.019, 1.035, 1.054, 1.079, 1.111, 1.127,
                            1.071, 1.041, 1.026, 1.015, 1.008, 1.005, 1.001, 1.001, 1.007, 1.011, 1.019, 1.035, 1.054, 1.079, 1.111, 1.127,
                            1.077, 1.049, 1.036, 1.026, 1.015, 1.008, 1.007, 1.007, 1.011, 1.019, 1.032, 1.043, 1.063, 1.089, 1.122, 1.139,
                            1.102, 1.084, 1.049, 1.036, 1.027, 1.021, 1.021, 1.022, 1.026, 1.032, 1.043, 1.063, 1.089, 1.119, 1.145, 1.164,
                            1.135, 1.104, 1.084, 1.069, 1.059, 1.052, 1.052, 1.052, 1.057, 1.065, 1.076, 1.092, 1.119, 1.149, 1.182, 1.199,
                            1.185, 1.153, 1.134, 1.118, 1.107, 1.102, 1.101, 1.101, 1.106, 1.114, 1.125, 1.144, 1.169, 1.201, 1.233, 1.251,
                            1.257, 1.221, 1.202, 1.188, 1.178, 1.169, 1.169, 1.169, 1.174, 1.184, 1.196, 1.216, 1.241, 1.268, 1.301, 1.315,
                            1.271, 1.257, 1.239, 1.236, 1.227, 1.225, 1.223, 1.223, 1.223, 1.231, 1.239, 1.254, 1.277, 1.305, 1.331, 1.364
                        ]
                    },
                    {
                        "ct": 4000,
                        "table":
                        [
                            1.025, 1.018, 1.013, 1.009, 1.005, 1.002, 1.001, 1.001, 1.001, 1.003, 1.006, 1.011, 1.019, 1.029, 1.033, 1.038,
                            1.022, 1.014, 1.012, 1.008, 1.006, 1.004, 1.002, 1.001, 1.003, 1.006, 1.009, 1.013, 1.019, 1.027, 1.033, 1.034,
                            1.022, 1.015, 1.013, 1.009, 1.006, 1.006, 1.008, 1.008, 1.009, 1.009, 1.013, 1.014, 1.019, 1.027, 1.033, 1.034,
                            1.022, 1.017, 1.015, 1.014, 1.014, 1.014, 1.014, 1.013, 1.013, 1.014, 1.014, 1.018, 1.022, 1.028, 1.033, 1.034,
                            1.024, 1.018, 1.018, 1.018, 1.019, 1.019, 1.019, 1.018, 1.018, 1.018, 1.018, 1.019, 1.024, 1.029, 1.034, 1.035,
                            1.028, 1.018, 1.018, 1.018, 1.019, 1.019, 1.019, 1.019, 1.019, 1.019, 1.019, 1.021, 1.025, 1.031, 1.034, 1.037,
                            1.033, 1.019, 1.018, 1.018, 1.018, 1.019, 1.019, 1.019, 1.019, 1.019, 1.019, 1.022, 1.026, 1.033, 1.038, 1.039,
                            1.033, 1.025, 1.018, 1.018, 1.018, 1.019, 1.019, 1.019, 1.019, 1.019, 1.022, 1.026, 1.032, 1.039, 1.045, 1.045,
                            1.038, 1.035, 1.025, 1.024, 1.024, 1.024, 1.024, 1.025, 1.027, 1.027, 1.028, 1.032, 1.039, 1.047, 1.054, 1.057,
                            1.048, 1.038, 1.038, 1.036, 1.036, 1.036, 1.038, 1.038, 1.041, 1.041, 1.043, 1.046, 1.054, 1.059, 1.062, 1.062,
                            1.068, 1.055, 1.055, 1.054, 1.055, 1.055, 1.058, 1.059, 1.059, 1.061, 1.064, 1.069, 1.076, 1.081, 1.081, 1.079,
                            1.071, 1.071, 1.071, 1.073, 1.073, 1.072, 1.072, 1.072, 1.075, 1.078, 1.081, 1.081, 1.088, 1.097, 1.099, 1.102
                        ]
                    },
                    {
                        "ct": 6500,
                        "table":
                        [
                            1.108, 1.097, 1.083, 1.076, 1.069, 1.063, 1.063, 1.062, 1.062, 1.062, 1.066, 1.074, 1.091, 1.109, 1.121, 1.143,
                            1.097, 1.075, 1.062, 1.051, 1.045, 1.039, 1.036, 1.036, 1.038, 1.042, 1.049, 1.059, 1.074, 1.091, 1.109, 1.119,
                            1.072, 1.057, 1.039, 1.031, 1.025, 1.019, 1.019, 1.021, 1.022, 1.024, 1.028, 1.039, 1.057, 1.074, 1.089, 1.096,
                            1.051, 1.039, 1.029, 1.019, 1.016, 1.012, 1.009, 1.009, 1.011, 1.012, 1.019, 1.028, 1.039, 1.057, 1.073, 1.083,
                            1.051, 1.029, 1.019, 1.016, 1.011, 1.006, 1.004, 1.003, 1.003, 1.008, 1.012, 1.019, 1.029, 1.046, 1.065, 1.074,
                            1.051, 1.025, 1.016, 1.011, 1.006, 1.002, 1.002, 1.002, 1.002, 1.003, 1.008, 1.016, 1.029, 1.046, 1.065, 1.073,
                            1.051, 1.025, 1.016, 1.009, 1.005, 1.001, 1.001, 1.001, 1.001, 1.003, 1.006, 1.016, 1.029, 1.047, 1.071, 1.079,
                            1.055, 1.043, 1.024, 1.014, 1.006, 1.001, 1.001, 1.001, 1.002, 1.006, 1.015, 1.029, 1.047, 1.066, 1.083, 1.093,
                            1.079, 1.061, 1.043, 1.033, 1.026, 1.023, 1.022, 1.022, 1.024, 1.028, 1.035, 1.048, 1.066, 1.087, 1.109, 1.116,
                            1.111, 1.092, 1.081, 1.071, 1.064, 1.062, 1.062, 1.062, 1.064, 1.068, 1.076, 1.089, 1.106, 1.123, 1.148, 1.158,
                            1.166, 1.138, 1.129, 1.122, 1.116, 1.113, 1.113, 1.114, 1.118, 1.124, 1.133, 1.146, 1.162, 1.179, 1.198, 1.209,
                            1.173, 1.167, 1.161, 1.153, 1.153, 1.147, 1.147, 1.147, 1.154, 1.158, 1.162, 1.171, 1.186, 1.207, 1.224, 1.245
                        ]
                    }
                ],
                "calibrations_Cb": [
                    {
                        "ct": 2856,
                        "table":
                        [
                            1.082, 1.085, 1.093, 1.097, 1.101, 1.101, 1.098, 1.094, 1.087, 1.079, 1.076, 1.065, 1.063, 1.054, 1.046, 1.044,
                            1.082, 1.087, 1.093, 1.097, 1.099, 1.099, 1.098, 1.092, 1.087, 1.079, 1.076, 1.068, 1.065, 1.059, 1.054, 1.046,
                            1.082, 1.085, 1.091, 1.096, 1.096, 1.096, 1.092, 1.089, 1.086, 1.078, 1.072, 1.068, 1.066, 1.063, 1.059, 1.049,
                            1.079, 1.079, 1.085, 1.088, 1.088, 1.087, 1.086, 1.081, 1.077, 1.072, 1.068, 1.066, 1.064, 1.061, 1.059, 1.049,
                            1.076, 1.079, 1.085, 1.085, 1.085, 1.083, 1.081, 1.077, 1.072, 1.068, 1.066, 1.061, 1.061, 1.059, 1.059, 1.052,
                            1.069, 1.077, 1.079, 1.084, 1.085, 1.083, 1.082, 1.077, 1.072, 1.067, 1.063, 1.061, 1.061, 1.059, 1.059, 1.055,
                            1.063, 1.076, 1.081, 1.086, 1.087, 1.087, 1.087, 1.083, 1.077, 1.071, 1.065, 1.063, 1.061, 1.059, 1.058, 1.055,
                            1.059, 1.074, 1.081, 1.085, 1.087, 1.087, 1.087, 1.085, 1.083, 1.076, 1.069, 1.064, 1.063, 1.061, 1.058, 1.053,
                            1.052, 1.059, 1.074, 1.081, 1.085, 1.086, 1.086, 1.083, 1.077, 1.074, 1.069, 1.064, 1.061, 1.058, 1.049, 1.043,
                            1.033, 1.047, 1.057, 1.064, 1.069, 1.075, 1.076, 1.076, 1.074, 1.069, 1.059, 1.056, 1.052, 1.049, 1.042, 1.034,
                            1.005, 1.026, 1.039, 1.049, 1.055, 1.061, 1.064, 1.064, 1.064, 1.058, 1.052, 1.049, 1.042, 1.042, 1.033, 1.024,
                            1.001, 1.005, 1.021, 1.033, 1.038, 1.044, 1.044, 1.044, 1.044, 1.041, 1.035, 1.035, 1.029, 1.023, 1.021, 1.019
                        ]
                    },
                    {
                        "ct": 4000,
                        "table":
                        [
                            1.079, 1.085, 1.089, 1.089, 1.091, 1.089, 1.089, 1.085, 1.079, 1.076, 1.068, 1.062, 1.056, 1.053, 1.046, 1.042,
                            1.077, 1.079, 1.086, 1.089, 1.089, 1.089, 1.085, 1.079, 1.076, 1.068, 1.062, 1.057, 1.053, 1.052, 1.046, 1.042,
                            1.073, 1.077, 1.078, 1.078, 1.078, 1.076, 1.074, 1.072, 1.065, 1.061, 1.055, 1.052, 1.052, 1.048, 1.046, 1.042,
                            1.066, 1.069, 1.069, 1.069, 1.069, 1.068, 1.065, 1.061, 1.057, 1.053, 1.049, 1.045, 1.045, 1.045, 1.042, 1.037,
                            1.059, 1.061, 1.062, 1.063, 1.063, 1.063, 1.061, 1.057, 1.053, 1.049, 1.044, 1.042, 1.042, 1.041, 1.041, 1.041,
                            1.057, 1.061, 1.062, 1.063, 1.063, 1.062, 1.059, 1.057, 1.052, 1.046, 1.044, 1.041, 1.041, 1.041, 1.041, 1.041,
                            1.051, 1.059, 1.062, 1.063, 1.064, 1.063, 1.062, 1.059, 1.054, 1.048, 1.044, 1.042, 1.041, 1.041, 1.041, 1.041,
                            1.051, 1.059, 1.062, 1.063, 1.066, 1.066, 1.065, 1.064, 1.057, 1.052, 1.047, 1.043, 1.042, 1.041, 1.041, 1.034,
                            1.045, 1.051, 1.059, 1.063, 1.066, 1.066, 1.064, 1.064, 1.058, 1.054, 1.048, 1.043, 1.042, 1.041, 1.034, 1.029,
                            1.029, 1.041, 1.045, 1.049, 1.054, 1.059, 1.059, 1.058, 1.054, 1.048, 1.043, 1.039, 1.036, 1.032, 1.028, 1.025,
                            1.008, 1.024, 1.029, 1.039, 1.042, 1.047, 1.049, 1.049, 1.046, 1.042, 1.039, 1.032, 1.031, 1.026, 1.023, 1.019,
                            1.001, 1.008, 1.016, 1.023, 1.026, 1.028, 1.032, 1.032, 1.032, 1.031, 1.026, 1.022, 1.021, 1.017, 1.017, 1.017
                        ]
                    },
                    {
                        "ct": 6500,
                        "table":
                        [
                            1.045, 1.046, 1.046, 1.047, 1.046, 1.043, 1.043, 1.039, 1.035, 1.034, 1.032, 1.029, 1.026, 1.026, 1.021, 1.014,
                            1.044, 1.045, 1.046, 1.043, 1.043, 1.042, 1.039, 1.035, 1.034, 1.032, 1.029, 1.026, 1.026, 1.024, 1.022, 1.017,
                            1.039, 1.039, 1.037, 1.036, 1.034, 1.032, 1.029, 1.027, 1.026, 1.022, 1.022, 1.022, 1.022, 1.022, 1.021, 1.017,
                            1.038, 1.036, 1.033, 1.031, 1.029, 1.028, 1.025, 1.021, 1.021, 1.018, 1.018, 1.018, 1.018, 1.021, 1.019, 1.017,
                            1.033, 1.033, 1.031, 1.029, 1.028, 1.026, 1.024, 1.021, 1.018, 1.018, 1.015, 1.015, 1.017, 1.019, 1.019, 1.016,
                            1.033, 1.033, 1.033, 1.031, 1.029, 1.028, 1.024, 1.021, 1.021, 1.018, 1.015, 1.015, 1.017, 1.019, 1.019, 1.017,
                            1.033, 1.036, 1.037, 1.037, 1.037, 1.035, 1.032, 1.028, 1.025, 1.023, 1.021, 1.021, 1.021, 1.023, 1.021, 1.017,
                            1.036, 1.037, 1.039, 1.041, 1.041, 1.041, 1.039, 1.038, 1.034, 1.028, 1.027, 1.025, 1.024, 1.023, 1.023, 1.017,
                            1.035, 1.036, 1.039, 1.041, 1.041, 1.041, 1.039, 1.038, 1.035, 1.032, 1.027, 1.025, 1.024, 1.023, 1.017, 1.012,
                            1.022, 1.029, 1.031, 1.035, 1.036, 1.036, 1.035, 1.035, 1.034, 1.028, 1.024, 1.021, 1.019, 1.017, 1.012, 1.007,
                            1.006, 1.015, 1.019, 1.024, 1.028, 1.028, 1.028, 1.028, 1.026, 1.021, 1.019, 1.016, 1.012, 1.009, 1.006, 1.001,
                            1.001, 1.005, 1.011, 1.011, 1.016, 1.016, 1.016, 1.014, 1.012, 1.012, 1.012, 1.004, 1.004, 1.001, 1.001, 1.001
                        ]
                    }
                ],
                "luminance_lut":
                [
                    1.399, 1.341, 1.303, 1.284, 1.266, 1.249, 1.249, 1.249, 1.252, 1.274, 1.309, 1.352, 1.406, 1.501, 1.584, 1.692,
                    1.325, 1.269, 1.216, 1.179, 1.156, 1.137, 1.131, 1.131, 1.148, 1.178, 1.215, 1.263, 1.323, 1.399, 1.501, 1.584,
                    1.244, 1.201, 1.146, 1.101, 1.077, 1.062, 1.062, 1.062, 1.074, 1.099, 1.134, 1.175, 1.232, 1.313, 1.387, 1.454,
                    1.189, 1.146, 1.099, 1.066, 1.044, 1.029, 1.025, 1.026, 1.042, 1.064, 1.092, 1.131, 1.175, 1.232, 1.317, 1.381,
                    1.166, 1.126, 1.075, 1.044, 1.023, 1.011, 1.005, 1.011, 1.021, 1.042, 1.068, 1.102, 1.146, 1.206, 1.286, 1.342,
                    1.166, 1.126, 1.075, 1.037, 1.017, 1.011, 1.001, 1.008, 1.016, 1.034, 1.063, 1.101, 1.146, 1.206, 1.286, 1.342,
                    1.197, 1.148, 1.099, 1.066, 1.034, 1.016, 1.011, 1.013, 1.032, 1.054, 1.082, 1.122, 1.169, 1.228, 1.309, 1.376,
                    1.254, 1.203, 1.148, 1.099, 1.072, 1.055, 1.049, 1.049, 1.058, 1.083, 1.122, 1.169, 1.228, 1.308, 1.382, 1.452,
                    1.356, 1.289, 1.229, 1.185, 1.153, 1.134, 1.133, 1.135, 1.146, 1.171, 1.209, 1.259, 1.323, 1.406, 1.508, 1.591,
                    1.511, 1.438, 1.375, 1.327, 1.295, 1.275, 1.273, 1.274, 1.288, 1.322, 1.361, 1.414, 1.487, 1.583, 1.711, 1.811,
                    1.731, 1.652, 1.577, 1.525, 1.492, 1.474, 1.467, 1.467, 1.486, 1.527, 1.589, 1.659, 1.751, 1.865, 2.019, 2.139,
                    1.803, 1.731, 1.659, 1.622, 1.605, 1.596, 1.596, 1.596, 1.599, 1.621, 1.669, 1.755, 1.865, 2.019, 2.139, 2.229
                ],
                "sigma": 0.01586,
                "sigma_Cb": 0.00227
            }
        },
        {
            "rpi.contrast":
            {
                "ce_enable": 1,
                "gamma_curve":
                [
                    0, 0,
                    1024, 5040,
                    2048, 9338,
                    3072, 12356,
                    4096, 15312,
                    5120, 18051,
                    6144, 20790,
                    7168, 23193,
                    8192, 25744,
                    9216, 27942,
                    10240, 30035,
                    11264, 32005,
                    12288, 33975,
                    13312, 35815,
                    14336, 37600,
                    15360, 39168,
                    16384, 40642,
                    18432, 43379,
                    20480, 45749,
                    22528, 47753,
                    24576, 49621,
                    26624, 51253,
                    28672, 52698,
                    30720, 53796,
                    32768, 54876,
                    36864, 57012,
                    40960, 58656,
                    45056, 59954,
                    49152, 61183,
                    53248, 62355,
                    57344, 63419,
                    61440, 64476,
                    65535, 65535
                ]
            }
        },
        {
            "rpi.ccm":
            {
                "ccms": [
                    {
                        "ct": 2300,
                        "ccm":
                        [
                            1.77745, -0.11916, -0.65829,
                            -0.39197, 1.85034, -0.45837,
                            0.18465, -1.66981, 2.48515
                        ]
                    },
                    {
                        "ct": 2856,
                        "ccm":
                        [
                            1.76464, -0.32749, -0.43716,
                            -0.33718, 1.77933, -0.44214,
                            0.21868, -1.34481, 2.12613
                        ]
                    },
                    {
                        "ct": 4000,
                        "ccm":
                        [
                            1.74898, -0.42401, -0.32497,
                            -0.37869, 1.78292, -0.40422,
                            0.04792, -0.77995, 1.73203
                        ]
                    },
                    {
                        "ct": 6500,
                        "ccm":
                        [
                            1.70667, -0.39678, -0.30989,
                            -0.26205, 1.79306, -0.53101,
                            0.02172, -0.63913, 1.61741
                        ]
                    }
                ]
            }
        },
        {
            "rpi.sharpen":
            {
                "threshold": 0.75,
                "limit": 0.5,
                "strength": 1.0
            }
        }
    ]
}