src/ipa/rpi/pisp/data/imx462.json
{
    "version": 2.0,
    "target": "pisp",
    "vendor": "Innomaker",
    "sku": "CAM-MIPI462RAW",
    "algorithms": [
        {
            "rpi.black_level":
            {
                "black_level": 3840
            }
        },
        {
            "rpi.lux":
            {
                "reference_shutter_speed": 5437,
                "reference_gain": 1.0,
                "reference_aperture": 1.0,
                "reference_lux": 972,
                "reference_Y": 12728
            }
        },
        {
            "rpi.dpc":
            {
                "strength": 1
            }
        },
        {
            "rpi.noise":
            {
                "reference_constant": 0,
                "reference_slope": 3.849
            }
        },
        {
            "rpi.geq":
            {
                "offset": 194,
                "slope": 0.01041
            }
        },
        {
            "rpi.denoise":
            {
                "normal":
                {
                    "sdn":
                    {
                        "deviation": 0.6,
                        "strength": 0.95,
                        "deviation2": 3.2,
                        "deviation_no_tdn": 3.2,
                        "strength_no_tdn": 0.95
                    },
                    "cdn":
                    {
                        "deviation": 200,
                        "strength": 0.3
                    },
                    "tdn":
                    {
                        "deviation": 1.0,
                        "threshold": 0.05
                    }
                },
                "hdr":
                {
                    "sdn":
                    {
                        "deviation": 0.6,
                        "strength": 0.95,
                        "deviation2": 3.2,
                        "deviation_no_tdn": 3.2,
                        "strength_no_tdn": 0.95
                    },
                    "cdn":
                    {
                        "deviation": 200,
                        "strength": 0.3
                    },
                    "tdn":
                    {
                        "deviation": 1.3,
                        "threshold": 0.1
                    }
                },
                "night":
                {
                    "sdn":
                    {
                        "deviation": 0.6,
                        "strength": 0.95,
                        "deviation2": 3.2,
                        "deviation_no_tdn": 3.2,
                        "strength_no_tdn": 0.95
                    },
                    "cdn":
                    {
                        "deviation": 200,
                        "strength": 0.3
                    },
                    "tdn":
                    {
                        "deviation": 1.3,
                        "threshold": 0.1
                    }
                }
            }
        },
        {
            "rpi.awb":
            {
                "priors": [
                    {
                        "lux": 0,
                        "prior":
                        [
                            2000, 1.0,
                            3000, 0.0,
                            13000, 0.0
                        ]
                    },
                    {
                        "lux": 800,
                        "prior":
                        [
                            2000, 0.0,
                            6000, 2.0,
                            13000, 2.0
                        ]
                    },
                    {
                        "lux": 1500,
                        "prior":
                        [
                            2000, 0.0,
                            4000, 1.0,
                            6000, 6.0,
                            6500, 7.0,
                            7000, 1.0,
                            13000, 1.0
                        ]
                    }
                ],
                "modes":
                {
                    "auto":
                    {
                        "lo": 2800,
                        "hi": 6700
                    },
                    "incandescent":
                    {
                        "lo": 2800,
                        "hi": 3000
                    },
                    "tungsten":
                    {
                        "lo": 3000,
                        "hi": 3500
                    },
                    "fluorescent":
                    {
                        "lo": 4000,
                        "hi": 4700
                    },
                    "indoor":
                    {
                        "lo": 3000,
                        "hi": 5000
                    },
                    "daylight":
                    {
                        "lo": 5500,
                        "hi": 6500
                    }
                },
                "bayes": 1,
                "ct_curve":
                [
                    2820.0, 0.8649, 0.3772,
                    2865.0, 0.8521, 0.3881,
                    2895.0, 0.8514, 0.3885,
                    2906.0, 0.8486, 0.3909,
                    2918.0, 0.8331, 0.4038,
                    3587.0, 0.7423, 0.4781,
                    3615.0, 0.7419, 0.4784,
                    3620.0, 0.7382, 0.4814,
                    4330.0, 0.6425, 0.5575,
                    4490.0, 0.6296, 0.5676,
                    4535.0, 0.6232, 0.5726,
                    4580.0, 0.6181, 0.5766,
                    5640.0, 0.5629, 0.6192,
                    5675.0, 0.5614, 0.6203,
                    5750.0, 0.5593, 0.6219,
                    6737.0, 0.4925, 0.6724
                ],
                "sensitivity_r": 1.05,
                "sensitivity_b": 1.05,
                "transverse_pos": 0.04613,
                "transverse_neg": 0.02808
            }
        },
        {
            "rpi.agc":
            {
                "channels": [
                    {
                        "comment": "Channel 0 is normal AGC",
                        "metering_modes":
                        {
                            "centre-weighted":
                            {
                                "weights":
                                [
                                    0, 0, 1, 1, 1, 1, 1, 1, 1, 1, 1, 1, 1, 0, 0,
                                    0, 1, 1, 1, 1, 1, 2, 2, 2, 1, 1, 1, 1, 1, 0,
                                    1, 1, 1, 1, 2, 2, 2, 2, 2, 2, 2, 1, 1, 1, 1,
                                    1, 1, 2, 2, 2, 2, 2, 2, 2, 2, 2, 2, 2, 1, 1,
                                    1, 1, 2, 2, 2, 2, 3, 3, 3, 2, 2, 2, 2, 1, 1,
                                    1, 1, 2, 2, 2, 3, 3, 3, 3, 3, 2, 2, 2, 1, 1,
                                    1, 1, 2, 2, 3, 3, 3, 4, 3, 3, 3, 2, 2, 1, 1,
                                    1, 1, 2, 2, 3, 3, 4, 4, 4, 3, 3, 2, 2, 1, 1,
                                    1, 1, 2, 2, 3, 3, 3, 4, 3, 3, 3, 2, 2, 1, 1,
                                    1, 1, 2, 2, 2, 3, 3, 3, 3, 3, 2, 2, 2, 1, 1,
                                    1, 1, 2, 2, 2, 2, 3, 3, 3, 2, 2, 2, 2, 1, 1,
                                    1, 1, 2, 2, 2, 2, 2, 2, 2, 2, 2, 2, 2, 1, 1,
                                    1, 1, 1, 1, 2, 2, 2, 2, 2, 2, 2, 1, 1, 1, 1,
                                    0, 1, 1, 1, 1, 1, 2, 2, 2, 1, 1, 1, 1, 1, 0,
                                    0, 0, 1, 1, 1, 1, 1, 1, 1, 1, 1, 1, 1, 0, 0
                                ]
                            },
                            "spot":
                            {
                                "weights":
                                [
                                    0, 0, 0, 0, 0, 0, 0, 0, 0, 0, 0, 0, 0, 0, 0,
                                    0, 0, 0, 0, 0, 0, 0, 0, 0, 0, 0, 0, 0, 0, 0,
                                    0, 0, 0, 0, 0, 0, 0, 0, 0, 0, 0, 0, 0, 0, 0,
                                    0, 0, 0, 0, 0, 0, 0, 0, 0, 0, 0, 0, 0, 0, 0,
                                    0, 0, 0, 0, 0, 0, 0, 0, 0, 0, 0, 0, 0, 0, 0,
                                    0, 0, 0, 0, 0, 0, 0, 1, 0, 0, 0, 0, 0, 0, 0,
                                    0, 0, 0, 0, 0, 0, 1, 2, 1, 0, 0, 0, 0, 0, 0,
                                    0, 0, 0, 0, 0, 1, 2, 3, 2, 1, 0, 0, 0, 0, 0,
                                    0, 0, 0, 0, 0, 0, 1, 2, 1, 0, 0, 0, 0, 0, 0,
                                    0, 0, 0, 0, 0, 0, 0, 1, 0, 0, 0, 0, 0, 0, 0,
                                    0, 0, 0, 0, 0, 0, 0, 0, 0, 0, 0, 0, 0, 0, 0,
                                    0, 0, 0, 0, 0, 0, 0, 0, 0, 0, 0, 0, 0, 0, 0,
                                    0, 0, 0, 0, 0, 0, 0, 0, 0, 0, 0, 0, 0, 0, 0,
                                    0, 0, 0, 0, 0, 0, 0, 0, 0, 0, 0, 0, 0, 0, 0,
                                    0, 0, 0, 0, 0, 0, 0, 0, 0, 0, 0, 0, 0, 0, 0
                                ]
                            },
                            "matrix":
                            {
                                "weights":
                                [
                                    1, 1, 1, 1, 1, 1, 1, 1, 1, 1, 1, 1, 1, 1, 1,
                                    1, 1, 1, 1, 1, 1, 1, 1, 1, 1, 1, 1, 1, 1, 1,
                                    1, 1, 1, 1, 1, 1, 1, 1, 1, 1, 1, 1, 1, 1, 1,
                                    1, 1, 1, 1, 1, 1, 1, 1, 1, 1, 1, 1, 1, 1, 1,
                                    1, 1, 1, 1, 1, 1, 1, 1, 1, 1, 1, 1, 1, 1, 1,
                                    1, 1, 1, 1, 1, 1, 1, 1, 1, 1, 1, 1, 1, 1, 1,
                                    1, 1, 1, 1, 1, 1, 1, 1, 1, 1, 1, 1, 1, 1, 1,
                                    1, 1, 1, 1, 1, 1, 1, 1, 1, 1, 1, 1, 1, 1, 1,
                                    1, 1, 1, 1, 1, 1, 1, 1, 1, 1, 1, 1, 1, 1, 1,
                                    1, 1, 1, 1, 1, 1, 1, 1, 1, 1, 1, 1, 1, 1, 1,
                                    1, 1, 1, 1, 1, 1, 1, 1, 1, 1, 1, 1, 1, 1, 1,
                                    1, 1, 1, 1, 1, 1, 1, 1, 1, 1, 1, 1, 1, 1, 1,
                                    1, 1, 1, 1, 1, 1, 1, 1, 1, 1, 1, 1, 1, 1, 1,
                                    1, 1, 1, 1, 1, 1, 1, 1, 1, 1, 1, 1, 1, 1, 1,
                                    1, 1, 1, 1, 1, 1, 1, 1, 1, 1, 1, 1, 1, 1, 1
                                ]
                            }
                        },
                        "exposure_modes":
                        {
                            "normal":
                            {
                                "shutter": [ 100, 10000, 30000, 60000, 66666 ],
                                "gain": [ 1.0, 1.5, 2.0, 4.0, 8.0 ]
                            },
                            "short":
                            {
                                "shutter": [ 100, 5000, 10000, 20000, 60000 ],
                                "gain": [ 1.0, 1.5, 2.0, 4.0, 8.0 ]
                            },
                            "long":
                            {
                                "shutter": [ 100, 10000, 30000, 60000, 90000, 120000 ],
                                "gain": [ 1.0, 1.5, 2.0, 4.0, 8.0, 12.0 ]
                            }
                        },
                        "constraint_modes":
                        {
                            "normal": [
                                {
                                    "bound": "LOWER",
                                    "q_lo": 0.98,
                                    "q_hi": 1.0,
                                    "y_target":
                                    [
                                        0, 0.5,
                                        1000, 0.5
                                    ]
                                }
                            ],
                            "highlight": [
                                {
                                    "bound": "LOWER",
                                    "q_lo": 0.98,
                                    "q_hi": 1.0,
                                    "y_target":
                                    [
                                        0, 0.5,
                                        1000, 0.5
                                    ]
                                },
                                {
                                    "bound": "UPPER",
                                    "q_lo": 0.98,
                                    "q_hi": 1.0,
                                    "y_target":
                                    [
                                        0, 0.8,
                                        1000, 0.8
                                    ]
                                }
                            ],
                            "shadows": [
                                {
                                    "bound": "LOWER",
                                    "q_lo": 0.0,
                                    "q_hi": 0.5,
                                    "y_target":
                                    [
                                        0, 0.17,
                                        1000, 0.17
                                    ]
                                }
                            ]
                        },
                        "y_target":
                        [
                            0, 0.16,
                            1000, 0.165,
                            10000, 0.17
                        ]
                    },
                    {
                        "comment": "Channel 1 is the HDR short channel",
                        "desaturate": 0,
                        "metering_modes":
                        {
                            "centre-weighted":
                            {
                                "weights":
                                [
                                    0, 0, 1, 1, 1, 1, 1, 1, 1, 1, 1, 1, 1, 0, 0,
                                    0, 1, 1, 1, 1, 1, 2, 2, 2, 1, 1, 1, 1, 1, 0,
                                    1, 1, 1, 1, 2, 2, 2, 2, 2, 2, 2, 1, 1, 1, 1,
                                    1, 1, 2, 2, 2, 2, 2, 2, 2, 2, 2, 2, 2, 1, 1,
                                    1, 1, 2, 2, 2, 2, 3, 3, 3, 2, 2, 2, 2, 1, 1,
                                    1, 1, 2, 2, 2, 3, 3, 3, 3, 3, 2, 2, 2, 1, 1,
                                    1, 1, 2, 2, 3, 3, 3, 4, 3, 3, 3, 2, 2, 1, 1,
                                    1, 1, 2, 2, 3, 3, 4, 4, 4, 3, 3, 2, 2, 1, 1,
                                    1, 1, 2, 2, 3, 3, 3, 4, 3, 3, 3, 2, 2, 1, 1,
                                    1, 1, 2, 2, 2, 3, 3, 3, 3, 3, 2, 2, 2, 1, 1,
                                    1, 1, 2, 2, 2, 2, 3, 3, 3, 2, 2, 2, 2, 1, 1,
                                    1, 1, 2, 2, 2, 2, 2, 2, 2, 2, 2, 2, 2, 1, 1,
                                    1, 1, 1, 1, 2, 2, 2, 2, 2, 2, 2, 1, 1, 1, 1,
                                    0, 1, 1, 1, 1, 1, 2, 2, 2, 1, 1, 1, 1, 1, 0,
                                    0, 0, 1, 1, 1, 1, 1, 1, 1, 1, 1, 1, 1, 0, 0
                                ]
                            },
                            "spot":
                            {
                                "weights":
                                [
                                    0, 0, 0, 0, 0, 0, 0, 0, 0, 0, 0, 0, 0, 0, 0,
                                    0, 0, 0, 0, 0, 0, 0, 0, 0, 0, 0, 0, 0, 0, 0,
                                    0, 0, 0, 0, 0, 0, 0, 0, 0, 0, 0, 0, 0, 0, 0,
                                    0, 0, 0, 0, 0, 0, 0, 0, 0, 0, 0, 0, 0, 0, 0,
                                    0, 0, 0, 0, 0, 0, 0, 0, 0, 0, 0, 0, 0, 0, 0,
                                    0, 0, 0, 0, 0, 0, 0, 1, 0, 0, 0, 0, 0, 0, 0,
                                    0, 0, 0, 0, 0, 0, 1, 2, 1, 0, 0, 0, 0, 0, 0,
                                    0, 0, 0, 0, 0, 1, 2, 3, 2, 1, 0, 0, 0, 0, 0,
                                    0, 0, 0, 0, 0, 0, 1, 2, 1, 0, 0, 0, 0, 0, 0,
                                    0, 0, 0, 0, 0, 0, 0, 1, 0, 0, 0, 0, 0, 0, 0,
                                    0, 0, 0, 0, 0, 0, 0, 0, 0, 0, 0, 0, 0, 0, 0,
                                    0, 0, 0, 0, 0, 0, 0, 0, 0, 0, 0, 0, 0, 0, 0,
                                    0, 0, 0, 0, 0, 0, 0, 0, 0, 0, 0, 0, 0, 0, 0,
                                    0, 0, 0, 0, 0, 0, 0, 0, 0, 0, 0, 0, 0, 0, 0,
                                    0, 0, 0, 0, 0, 0, 0, 0, 0, 0, 0, 0, 0, 0, 0
                                ]
                            },
                            "matrix":
                            {
                                "weights":
                                [
                                    1, 1, 1, 1, 1, 1, 1, 1, 1, 1, 1, 1, 1, 1, 1,
                                    1, 1, 1, 1, 1, 1, 1, 1, 1, 1, 1, 1, 1, 1, 1,
                                    1, 1, 1, 1, 1, 1, 1, 1, 1, 1, 1, 1, 1, 1, 1,
                                    1, 1, 1, 1, 1, 1, 1, 1, 1, 1, 1, 1, 1, 1, 1,
                                    1, 1, 1, 1, 1, 1, 1, 1, 1, 1, 1, 1, 1, 1, 1,
                                    1, 1, 1, 1, 1, 1, 1, 1, 1, 1, 1, 1, 1, 1, 1,
                                    1, 1, 1, 1, 1, 1, 1, 1, 1, 1, 1, 1, 1, 1, 1,
                                    1, 1, 1, 1, 1, 1, 1, 1, 1, 1, 1, 1, 1, 1, 1,
                                    1, 1, 1, 1, 1, 1, 1, 1, 1, 1, 1, 1, 1, 1, 1,
                                    1, 1, 1, 1, 1, 1, 1, 1, 1, 1, 1, 1, 1, 1, 1,
                                    1, 1, 1, 1, 1, 1, 1, 1, 1, 1, 1, 1, 1, 1, 1,
                                    1, 1, 1, 1, 1, 1, 1, 1, 1, 1, 1, 1, 1, 1, 1,
                                    1, 1, 1, 1, 1, 1, 1, 1, 1, 1, 1, 1, 1, 1, 1,
                                    1, 1, 1, 1, 1, 1, 1, 1, 1, 1, 1, 1, 1, 1, 1,
                                    1, 1, 1, 1, 1, 1, 1, 1, 1, 1, 1, 1, 1, 1, 1
                                ]
                            }
                        },
                        "exposure_modes":
                        {
                            "normal":
                            {
                                "shutter": [ 100, 20000, 60000 ],
                                "gain": [ 1.0, 1.0, 1.0 ]
                            },
                            "short":
                            {
                                "shutter": [ 100, 20000, 60000 ],
                                "gain": [ 1.0, 1.0, 1.0 ]
                            },
                            "long":
                            {
                                "shutter": [ 100, 20000, 60000 ],
                                "gain": [ 1.0, 1.0, 1.0 ]
                            }
                        },
                        "constraint_modes":
                        {
                            "normal": [
                                {
                                    "bound": "LOWER",
                                    "q_lo": 0.95,
                                    "q_hi": 1.0,
                                    "y_target":
                                    [
                                        0, 0.5,
                                        1000, 0.5
                                    ]
                                },
                                {
                                    "bound": "UPPER",
                                    "q_lo": 0.95,
                                    "q_hi": 1.0,
                                    "y_target":
                                    [
                                        0, 0.7,
                                        1000, 0.7
                                    ]
                                },
                                {
                                    "bound": "LOWER",
                                    "q_lo": 0.0,
                                    "q_hi": 0.2,
                                    "y_target":
                                    [
                                        0, 0.002,
                                        1000, 0.002
                                    ]
                                }
                            ],
                            "highlight": [
                                {
                                    "bound": "LOWER",
                                    "q_lo": 0.95,
                                    "q_hi": 1.0,
                                    "y_target":
                                    [
                                        0, 0.5,
                                        1000, 0.5
                                    ]
                                },
                                {
                                    "bound": "UPPER",
                                    "q_lo": 0.95,
                                    "q_hi": 1.0,
                                    "y_target":
                                    [
                                        0, 0.7,
                                        1000, 0.7
                                    ]
                                },
                                {
                                    "bound": "LOWER",
                                    "q_lo": 0.0,
                                    "q_hi": 0.2,
                                    "y_target":
                                    [
                                        0, 0.002,
                                        1000, 0.002
                                    ]
                                }
                            ],
                            "shadows": [
                                {
                                    "bound": "LOWER",
                                    "q_lo": 0.95,
                                    "q_hi": 1.0,
                                    "y_target":
                                    [
                                        0, 0.5,
                                        1000, 0.5
                                    ]
                                },
                                {
                                    "bound": "UPPER",
                                    "q_lo": 0.95,
                                    "q_hi": 1.0,
                                    "y_target":
                                    [
                                        0, 0.7,
                                        1000, 0.7
                                    ]
                                },
                                {
                                    "bound": "LOWER",
                                    "q_lo": 0.0,
                                    "q_hi": 0.2,
                                    "y_target":
                                    [
                                        0, 0.002,
                                        1000, 0.002
                                    ]
                                }
                            ]
                        },
                        "y_target":
                        [
                            0, 0.16,
                            1000, 0.165,
                            10000, 0.17
                        ]
                    },
                    {
                        "comment": "Channel 2 is the HDR long channel",
                        "desaturate": 0,
                        "metering_modes":
                        {
                            "centre-weighted":
                            {
                                "weights":
                                [
                                    0, 0, 1, 1, 1, 1, 1, 1, 1, 1, 1, 1, 1, 0, 0,
                                    0, 1, 1, 1, 1, 1, 2, 2, 2, 1, 1, 1, 1, 1, 0,
